X:1
T:"Acordai!" A sentinela
T:Letra e melodia de Philipp Nicolai 1556-1608
T:Wachet auf, ruft uns die Stimme IECLB  HPD 305   LC 521 
T:Instrumentação: Bernhard Sydow 2019
%%score { ( 1 2 ) | ( 3 4 ) }
L:1/8
Q:1/2=80
M:4/2
K:Bb
V:1 treble nm="Piano" snm="Pno"
V:2 treble 
V:3 bass 
V:4 bass 
V:1
 B,4 D4 F6 F2 | [DF]2 F2 (G2 F2 [=EG]4) [A,CF]4 | z2 F2 B2 F2 B2 d2 c2 d2 | %3
w: “A- cor- dai!” A|sen- ti- ne _ _ la|a vin- da do Se- nhor re-|
w: Me- ia- noi- te!|Ve- io.a ho _ _ ra!|Er- guei- vos to- dos, vin- de.a-|
 c4 F6 [_EF]2 [DB]2 [DF]2 | [B,G]2 [B,D]2 [G,E]2 [A,C]2 |1 B,6 z2 :|2 B,4 z2 F2 || %7
w: ve- la: “A- cor- da,|po- vo de Je-|sus!”|* A-|
w: go- ra; Ó vir- gens,|a- cen- dei a||luz! *|
 [DF]6 [CE]2 [B,D]2 [A,C]2 B,4 | z2 [DF]2 [CF]6 [CE]2 [B,D]2 [A,C]2 | B,4 C2 D2 E4 D4 | %10
w: ler- ta, le- van- tai!|As lâm- pa- das to-|mai! A- le- lu- ia.|
w: |||
 F4 G2 A2 B4 B2 d2 | c4 B4 F4 B2 F2 | G2 D2 E2 C2 B,8 |] %13
w: Vin- de,a cor- rer, Às bo-|das ter e.o noi- vo.a-|le- gres re- ce- ber!|
w: |||
V:2
 x4 B,4 D6 C2 | B,2 C2 D4 C2 B,2 x4 | x2 C2 F2 C2 E2 F2 F2 F2 | =E4 C6 x6 | z8 |1 x8 :|2 x8 || %7
 x16 | x16 | G,4 G,2 B,4 A,2 B,4 | B,6 E2 D4 E2 F2 | F4 D2 C4 D4 C2 | B,4 G,2 A,2 x8 |] %13
V:3
 [D,F,]4 F,4 B,6 B,2 | F,8 G,2 G,2 A,4 | %2
 z2 [F,A,]2 [D,B,]2 [F,A,]2 [E,G,]2 [B,,B,]2 [F,A,]2 [D,B,]2 | %3
 C2 B,2 A,6 [F,A,]2 [G,B,]2 [D,_A,]2 | [E,G,]2 [B,,F,]2 [C,E,]2 [F,,F,]2 |1 [B,,D,]6 z2 :|2 %6
 D,4 z2 F,2 || B,4 G,4 F,2 F,2 [D,F,]4 | z2 B,2 _A,4 G,4 F,4 | B,4 G,2 F,2 E,4 F,4 | %10
 B,4 G,2 C2 B,4 G,2 B,2- | B,2 A,2 B,4 B,6 A,2 | %12
"_2. O\nuve a igreja, exultando, de coração rejubilando,\ndesperta e se ergue sem tardar.\nSeu amigo, esplendoroso, do céu vem, forte e poderoso,\na luz de Deus torna a brilhar.\nCoroa de valor, ó vem a mim, Senhor,\nCristo, hosana! Filho de Deus, co’os crentes teus,\nà Ceia sigo-te, nos céus.\n\n\n3. Glória, ó Deus, a ti cantamos e jubilosos entoamos\no teu louvor com gratidão.\nA teu trono chegaremos e com teu povo adoraremos\nem santa e eterna comunhão.\nNinguém jamais sentiu, jamais alguém ouviu\ntal ventura. Deus e Senhor, o teu amor \nexaltar\ne\nmos com fervor \n" G,2 F,2 E,2 F,2 [D,F,]8 |] %13
V:4
 B,,6 D,2 F,2 E,2 D,2 C,2 | B,,2 A,,2 B,,2 A,,2 C,2 =E,2 F,,4 | x16 | =E,4 F,6 x6 | x8 |1 x8 :|2 %6
 B,,4 x2 A,,2 || B,,4 C,4 D,2 F,,2 B,,4 | x2 B,,2 F,,6 C,,2 D,,2 F,,2 | G,,4 E,2 D,2 C,4 B,,4 | %10
 D,4 E,2 C,2 G,4 E,2 D,2 | F,4 B,,4 B,,4 G,,2 D,2 | E,2 B,,2 C,2 F,,2 B,,8 |] %13

